foxchannel.svg

<svg viewBox="0 0 24 24" xmlns="http://www.w3.org/2000/svg"><path d="M0.00641768 4.59134C0.00370985 4.59134 0.00370985 4.59676 0.00370985 4.60071C-0.00145964 8.06059-0.00145964 11.5417 0.00518685 15.0003C0.00912551 15.0003 0.00912551 15.0045 0.0145412 15.0033L2.92078 15.0033C2.92201 15.0018 2.92349 15.0003 2.92349 14.9966C2.92349 13.87 2.91832 12.7646 2.91684 11.6383C3.8668 11.6316 4.83005 11.6383 5.78517 11.6356L5.78517 8.7954C4.83645 8.79417 3.87984 8.80057 2.93777 8.79269C2.9417 8.35481 2.92989 7.87332 2.94441 7.43791L6.43087 7.43791C6.36785 6.48946 6.30483 5.54102 6.23935 4.59381C6.23787 4.5911 6.23664 4.5911 6.2327 4.5911L0.00641768 4.59134ZM14.8047 4.60736C14.7983 4.60613 14.8047 4.61672 14.8074 4.61672C15.7665 6.2879 16.7349 7.94995 17.6888 9.62532C16.7913 11.1831 15.9083 12.7609 15.012 14.3173C14.8835 14.5403 14.755 14.7618 14.6341 14.9887C15.6995 14.986 16.7649 14.9939 17.8397 14.9915C18.3185 14.1194 18.7857 13.2343 19.266 12.364C19.7147 13.1818 20.166 14.0048 20.6172 14.8239C20.6329 14.8515 20.6883 14.9846 20.7184 14.9846L24 14.9846C22.9737 13.1867 21.9216 11.3862 20.8887 9.58441C21.8177 7.93813 22.7706 6.28913 23.7009 4.6458C23.7073 4.6352 23.7164 4.62067 23.714 4.60761L20.5268 4.60761C20.1162 5.35177 19.7157 6.10629 19.3012 6.84602C18.9021 6.09939 18.5073 5.34882 18.1021 4.60761L14.8047 4.60736ZM11.3202 4.74781C11.2707 4.74781 11.2215 4.7488 11.1728 4.75126L11.1661 4.75126C10.7659 4.75126 10.3959 4.80794 10.0613 4.89098C9.72679 4.97402 9.41982 5.08885 9.14559 5.22339C8.44623 5.56763 7.86749 6.02423 7.41085 6.60725C6.95422 7.19174 6.59334 7.86962 6.4097 8.73478C6.33757 9.07779 6.28784 9.47353 6.29695 9.87444C6.31664 10.6844 6.48724 11.3492 6.74694 11.9256C7.13392 12.7858 7.70355 13.4674 8.43441 13.9834C9.16528 14.4979 10.068 14.8724 11.2909 14.8724C12.0728 14.8724 12.7512 14.6652 13.3127 14.4001C13.5948 14.2668 13.8496 14.1083 14.0935 13.9343C14.4571 13.6746 14.7825 13.3619 15.0516 13.0189C15.1434 12.9029 15.2288 12.7814 15.3128 12.6547C15.8088 11.9081 16.1655 10.9902 16.1655 9.75148C16.1655 9.35451 16.1173 8.977 16.0333 8.63424C15.8664 7.96006 15.6092 7.38222 15.267 6.90097C14.7473 6.16617 14.1019 5.57798 13.2356 5.18495C12.9562 5.0583 12.6429 4.94371 12.3044 4.86831C12.0191 4.80498 11.6658 4.74855 11.3202 4.74781ZM11.2434 6.82902C11.5083 6.82656 11.7205 6.95987 11.8642 7.10697C11.943 7.1873 12.01 7.28636 12.0533 7.39454C12.1006 7.51331 12.119 7.63997 12.119 7.80358L12.119 11.6156C12.119 11.7832 12.1281 11.9453 12.0966 12.072C12.01 12.428 11.7239 12.688 11.3343 12.7304C11.0325 12.7634 10.7988 12.634 10.6479 12.4795C10.531 12.3595 10.4421 12.1984 10.4146 11.998C10.4042 11.928 10.4079 11.8489 10.4079 11.7671L10.4079 7.95513C10.4079 7.79028 10.4065 7.6306 10.4367 7.50518C10.4958 7.25852 10.6401 7.07248 10.8303 6.95124C10.9328 6.88643 11.0494 6.84183 11.1898 6.83124C11.2077 6.82976 11.2257 6.82902 11.2434 6.82902ZM1.86842 15.8492C1.08709 15.8492 0.491611 16.2013 0.180703 16.8534C0.0750981 17.0749 0.0485121 17.1909 0.032019 17.5009C-0.0164758 18.4119 0.480288 19.1248 1.31848 19.3456C1.65229 19.4335 2.13354 19.4274 2.45306 19.3301C2.74083 19.2428 3.17138 18.975 3.18172 18.8767L2.65344 18.3308L2.55965 18.4151C2.18794 18.7488 1.53954 18.7318 1.20451 18.3791C0.817782 17.9721 0.856922 17.1683 1.28131 16.8117C1.63752 16.5123 2.20321 16.5057 2.51904 16.7967L2.61504 16.8851L3.17605 16.3297L3.01309 16.1895C2.7844 15.9924 2.45036 15.8788 2.02744 15.8539C1.97353 15.8507 1.92061 15.8492 1.86842 15.8492ZM3.52463 15.8505L3.52463 19.4089L4.36011 19.4089L4.36011 17.9082L5.69655 17.9082L5.69655 19.4089L6.53204 19.4089L6.53204 15.8505L5.69655 15.8505L5.69655 17.1796L4.36011 17.1796L4.36011 15.8505L3.52463 15.8505ZM8.26997 15.8505L6.82572 19.4089L7.71807 19.4089L7.96448 18.7416L9.32283 18.7416L9.57539 19.4089L10.5066 19.4089L9.06755 15.8505L8.26997 15.8505ZM10.8887 15.8505L10.8887 19.4089L11.7325 19.4089L11.7562 17.115L13.2172 19.4089L14.225 19.4089C14.2242 19.4089 14.225 15.8507 14.225 15.8507L13.3814 15.8507L13.3831 18.1704L11.8901 15.8507L10.8887 15.8505ZM14.7712 15.8505L14.7712 19.4089L15.6284 19.4089L15.6525 17.115L17.1366 19.4089L18.1607 19.4089C18.1597 19.4089 18.1607 15.8507 18.1607 15.8507L17.3035 15.8507L17.3053 18.1704L15.7886 15.8507L14.7712 15.8505ZM18.6759 15.8505L18.6759 19.4089L21.1098 19.4089L21.1098 18.68L19.487 18.68L19.487 17.9511L20.9389 17.9511L20.9389 17.2651L19.487 17.2651L19.487 16.5793L21.0241 16.5793L21.0241 15.8502L18.6759 15.8505ZM21.6688 15.8505L21.6688 19.4089L23.8405 19.4089L23.8405 18.68L22.5038 18.68L22.5038 15.8505L21.6688 15.8505ZM8.66606 16.8765L9.09808 18.0534L8.19391 18.0534L8.66606 16.8765Z" fill="#f24b42"/></svg>

<svg viewBox="0 0 24 24" xmlns="http://www.w3.org/2000/svg"><path d="M.006 4.591c-.002 0-.002.006-.002.01-.005 3.46-.005 6.94.001 10.4.004 0 .004.004.01.002H2.92l.002-.006c0-1.127-.005-2.232-.006-3.359.95-.006 1.913 0 2.868-.002v-2.84c-.949-.002-1.905.005-2.847-.003.004-.438-.008-.92.006-1.355h3.487c-.063-.949-.126-1.897-.192-2.844-.001-.003-.002-.003-.006-.003H.006Zm14.799.016c-.007 0 0 .01.002.01.96 1.67 1.928 3.333 2.882 5.008-.898 1.558-1.78 3.136-2.677 4.692-.129.223-.257.445-.378.672 1.066-.003 2.13.005 3.206.002.479-.872.946-1.757 1.426-2.627l1.351 2.46c.016.027.071.16.101.16H24c-1.026-1.797-2.078-3.598-3.111-5.4.929-1.646 1.882-3.295 2.812-4.938.006-.01.015-.025.013-.038h-3.187c-.41.744-.811 1.498-1.226 2.238-.399-.747-.794-1.497-1.199-2.238h-3.297Zm-3.485.14c-.05 0-.098.002-.147.004h-.007c-.4 0-.77.057-1.105.14a4.919 4.919 0 0 0-2.65 1.716A5.087 5.087 0 0 0 6.41 8.735a5.2 5.2 0 0 0 .337 3.19c.387.86.957 1.542 1.687 2.058.731.515 1.634.89 2.857.89.782 0 1.46-.208 2.022-.473.282-.133.537-.292.78-.466a4.687 4.687 0 0 0 1.22-1.28c.496-.746.853-1.664.853-2.903 0-.396-.049-.774-.133-1.117-.167-.674-.424-1.252-.766-1.733-.52-.735-1.165-1.323-2.031-1.716a4.782 4.782 0 0 0-1.916-.437Zm-.077 2.082a.862.862 0 0 1 .621.278c.079.08.146.18.19.288.047.118.065.245.065.409v3.812c0 .167.01.33-.022.456a.858.858 0 0 1-.763.658.82.82 0 0 1-.686-.25.846.846 0 0 1-.233-.482c-.01-.07-.007-.15-.007-.23V7.954c0-.165-.002-.324.029-.45a.89.89 0 0 1 .393-.554.766.766 0 0 1 .413-.122Zm-9.375 9.02c-.78 0-1.376.352-1.687 1.004-.106.222-.132.338-.149.648-.048.91.448 1.624 1.286 1.845a2.35 2.35 0 0 0 1.135-.016c.288-.087.718-.355.729-.453l-.529-.546-.093.084c-.372.334-1.02.317-1.355-.036-.387-.407-.348-1.21.076-1.567.357-.3.922-.306 1.238-.015l.096.088.561-.555-.163-.14c-.229-.198-.563-.311-.986-.336a2.68 2.68 0 0 0-.159-.005Zm1.657.002v3.558h.835v-1.5h1.337v1.5h.835V15.85h-.835v1.329H4.36v-1.33h-.835Zm4.745 0-1.444 3.558h.892l.246-.667h1.359l.252.667h.932l-1.44-3.558H8.27Zm2.619 0v3.558h.844l.023-2.294 1.461 2.294h1.008V15.85h-.844l.002 2.32-1.493-2.32H10.89Zm3.882 0v3.558h.857l.024-2.294 1.485 2.294h1.024V15.85h-.858l.002 2.32-1.516-2.32H14.77Zm3.905 0v3.558h2.434v-.729h-1.623v-.729h1.452v-.686h-1.452v-.686h1.537v-.729h-2.348Zm2.993 0v3.558h2.171v-.729h-1.336v-2.83h-.835ZM8.666 16.875l.432 1.177h-.904l.472-1.177Z" fill="#f24b42"/></svg>
